X: 10312
T: QUICK STEP No. 6.
C:
%R: quickstep
B: Elias Howe "The Musician's Companion" Part 1 1842 p.31 #2
S: http://imslp.org/wiki/The_Musician's_Companion_(Howe,_Elias)
Z: 2015 John Chambers <jc:trillian.mit.edu>
M: 6/8
L: 1/8
K: G
% - - - - - - - - - - - - - - - - - - - - - - - - -
B/c/ |\
ded ded | g2G GFG | ABA ABc | d2c BAG |\
ded ded | g2G GFG | ABc BcA | A3 G2 :: d |\
A2d A2d | B2d gab | agf edc Bcd d2B |
A2d A2d | Bcd efg | abg fge | ded cBA |\
ded ded | g2G GFG | ABA ABc | d2c BAG |\
ded ded | g2G GFG | ABc BcA | A3 G2 :|
% - - - - - - - - - - - - - - - - - - - - - - - - -


